X:355
T: WARUM BLICKT DOCH SO VERSTOHLEN
N: B0422
O: Europa, Mitteleuropa, Deutschland, Schwaben (?)
R: Liebes - Lied, Liebes - Lust
M: 2/4
L: 1/16
K: G
D2D2 | D2B2c2B2 | B2A2
A2G2 | G2F2E2D2 | D2G2
G2B2 | B2A2A2G2 | F2E2
G2F2 | A2G2F2E2 | D2z2
A2A2 | G2F2E2D2 | D2G2
A2B2 | c2c2A2G2 | F4
D2D2 | d2d2c2B2 | d2c2
A2G2 | FGABc2F2 | G2z2

@@@ Tune index: 2158
